rospo-newyear-dark/symbolic/mimetypes/x-office-presentation-symbolic.svg

<svg height="16" width="16" xmlns="http://www.w3.org/2000/svg"><g fill="#d3dae3"><path d="m7.4922 9.9922a.50005.50005 0 0 0 -.4922.5078v2.25l-1.8008 1.35a.50048.50048 0 1 0  .6016.8l1.6992-1.275 1.6992 1.275a.50048.50048 0 1 0  .6016-.8l-1.8008-1.35v-2.25a.50005.50005 0 0 0 -.5078-.5078z"/><path d="m2 2h12c .554 0 1 .446 1 1s-.446 1-1 1h-12c-.554 0-1-.446-1-1s .446-1 1-1z"/><path d="m2 3v8h12v-8zm6 1a2 2 0 0 1 2 2h-2zm-1 1v2h2a2 2 0 0 1 -2 2 2 2 0 0 1 -2-2 2 2 0 0 1 2-2z"/></g></svg>

<svg xmlns="http://www.w3.org/2000/svg" width="16" height="16" version="1.1">
 <path style="fill:#d3dae3" d="M 7.4922 9.9922 A 0.50005 0.50005 0 0 0 7 10.5 L 7 12.75 L 5.1992 14.1 A 0.50048 0.50048 0 1 0 5.8008 14.9 L 7.5 13.625 L 9.1992 14.9 A 0.50048 0.50048 0 1 0 9.8008 14.1 L 8 12.75 L 8 10.5 A 0.50005 0.50005 0 0 0 7.4922 9.9922 z"/>
 <path style="fill:#d3dae3" d="M 2,2 H 14 C 14.554,2 15,2.446 15,3 15,3.554 14.554,4 14,4 H 2 C 1.446,4 1,3.554 1,3 1,2.446 1.446,2 2,2 Z"/>
 <path style="fill:#d3dae3" d="M 2 3 L 2 11 L 14 11 L 14 3 L 2 3 z M 8 4 A 2 2 0 0 1 10 6 L 8 6 L 8 4 z M 7 5 L 7 7 L 9 7 A 2 2 0 0 1 7 9 A 2 2 0 0 1 5 7 A 2 2 0 0 1 7 5 z"/>
</svg>
